X:1
T:Jinrikisha -- Hornpipe
Z:Bob Puckette <bpuckette:msn.com> 2003-3-10
R:hornpipe
B:Cole's 1000 Fiddle Tunes
M:2/4
L:1/16
K:D
(3ABc)|.d2.d2 dAdf|.e2.e2 eAce|fedc dfaf|edcB .A2(Bc)|
d2d2 dAdf|e2e2 eAce|fafd egec|d2f2d2:|
|:vFG|AdFA dFAd|BdGB dGBG|AdFA dAFA|GAFG .E2(FG)|
AdFA dFAd|BdGB dGBG|FAdA Bgec|d2f2d2:|
